X:323
T:Slugs & Snails changed ending
R:polka 32
C:Trad. ed. OSB
S:Swan For The Money
M:2/4
L:1/16
Q:1/4=90
K:G
A/|Bd G>A|Bd GB|AB/A/ FA|Ge ed|
Bd G>A|Bd GB|AB/A/ FA|G2G>A||
Bd G>A|Bd GB|AB/A/ FA|Ge ed|
Bd G>A|Bd GB|AB/A/ FA|G2G3/2||]
|:A/|Bd ef|g2ga|f/e/d ef|ed BA|
Bd ef|g2ga|f/e/d ef|.e2d3/2:|]
% end last B with g2a3ga2b2c'

